X: 0753
T: MISS BAIRD'S STRATHSPEY
B: Oliver Ditson "The Boston Collection of Instrumental Music" 1910 p.75 #3
F: http://conquest.imslp.info/files/imglnks/usimg/8/8f/IMSLP175643-PMLP309456-bostoncollection00bost_bw.pdf
%: 2012 John Chambers <jc:trillian.mit.edu>
M: 4/4
L: 1/16
K: Em
e2 |\
E3FG3A Be3 Te4 | d3ed3A FGAG F3D | E3FG3A Be3 Te4 | f3c' bagf ge3 e3G |
E3FG3A Be3 Te4 | d3ed3A FGAG F3D | E3FG3A Be3 Te4 | b2g2 bagf g2e2e2 |]
ga |\
b3eg3e be3 Tg4 | fa3a3g fgag fd3 | b3eg3e be3 Tg4 | fgag bagf ge3Te3g |
b3eg3e b3e Tg4 | fa3a3g fgag fd3 | b3ge3B e3c B3G | A3c BAGF G2E2E2 |]

%%sep 1 1 500
%%sep 1 1 500
